X:1
T:Title
%%score { 1 | 2 }
L:1/8
M:4/4
K:Ab
V:1 treble nm="Grand Piano"
V:2 bass 
V:1
 z4 z2[Q:1/4=106] [Ec]2 | [Ed]2 [EB]2 [EA]2 [EG]2 | [EA]6 [EA]2 | [EG]4 F4 |[M:3/4] E6 | %5
[M:1/4] c2 |[M:4/4] f2 e2 d2 c2 | [Dd]6 [EF]2 | [FB]4 [DG]4 |[M:3/4] [CA]6 |] %10
V:2
 z4 z2 [A,,A,]2 | [B,,G,]2 [B,,G,]2 [D,B,]2 [D,B,]2 | [C,A,]6 [C,A,]2 | [D,A,]4 [F,A,D]4 | %4
[M:3/4] [A,C]6 |[M:1/4] [_G,A,E]2 |[M:4/4] [F,=A,F]2 [F,CF]2 [F,B,F]2 [F,A,E]2 | %7
 [B,,B,]6 [C,=A,]2 | [D,B,]4 [E,B,]4 |[M:3/4] [A,,A,]6 |] %10

